X:4291
T:Miss Wiltons Reel
O:england
R:Reel
M:C|
A:Westmorland
N:P24 2/2
K:D
A|FAdA BAGF|GDed eBde|dcdA BAGF|GBAG FD-D2:|
|:f|abaf dfaf|gfge beef|\
abaf dfaf|ef/2g/2 fe fddf|\
abaf dfaf|gfge beef|fdec dBAG|Agfe fdd2:|


